TGraph/RY.svg

<svg xmlns="http://www.w3.org/2000/svg" viewBox="0 0 1200 800" preserveAspectRatio="none" width="1200" height="800">
 <path d="M0,0H1200V800H0Z" style="fill: white;"></path>
 <g>
  <g transform="translate(120,80)">
   <path d="M0,0H960V640H0Z" style="fill: white; stroke: black; stroke-width: 1;"></path>
   <svg x="0" y="0" overflow="hidden" width="960" height="640" viewBox="0 0 960 640">
    <g>
     <path d="M0,53l46,65l46,62l46,60l46,57l46,53l46,49l46,44l45,38l46,34l46,27l46,21l46,14l46,8l46,2l46,-6l46,-11l46,-19l46,-24l46,-31" style="stroke: red; stroke-width: 4; fill: none;"></path>
    </g>
   </svg>
   <g>
    <g transform="translate(0,640)">
     <path d="M0,0h960M0,-24v24m23,-12v12m23,-12v12m23,-12v12m23,-24v24m23,-12v12m23,-12v12m23,-12v12m23,-24v24m23,-12v12m23,-12v12m23,-12v12m23,-24v24m23,-12v12m23,-12v12m22,-12v12m23,-24v24m23,-12v12m23,-12v12m23,-12v12m23,-24v24m23,-12v12m23,-12v12m23,-12v12m23,-24v24m23,-12v12m23,-12v12m23,-12v12m23,-24v24m23,-12v12m23,-12v12m23,-12v12m23,-24v24m23,-12v12m23,-12v12m23,-12v12m23,-24v24m23,-12v12m23,-12v12m23,-12v12m23,-24v24m23,-12v12" style="stroke: black; stroke-width: 1;"></path>
     <g font-family="Arial" font-size="28" space="preserve" fill="black" text-anchor="middle">
      <text dy=".8em" transform="translate(0,6)">
       0
      </text>
      <text dy=".8em" transform="translate(92,6)">
       0.2
      </text>
      <text dy=".8em" transform="translate(184,6)">
       0.4
      </text>
      <text dy=".8em" transform="translate(276,6)">
       0.6
      </text>
      <text dy=".8em" transform="translate(367,6)">
       0.8
      </text>
      <text dy=".8em" transform="translate(459,6)">
       1
      </text>
      <text dy=".8em" transform="translate(551,6)">
       1.2
      </text>
      <text dy=".8em" transform="translate(643,6)">
       1.4
      </text>
      <text dy=".8em" transform="translate(735,6)">
       1.6
      </text>
      <text dy=".8em" transform="translate(827,6)">
       1.8
      </text>
      <text dy=".8em" transform="translate(919,6)">
       2
      </text>
     </g>
    </g>
    <g>
     <path d="M0,0v640M18,1h-18m18,13h-18m18,14h-18m18,13h-18m36,13h-36m18,14h-18m18,13h-18m18,13h-18m18,13h-18m36,14h-36m18,13h-18m18,13h-18m18,14h-18m18,13h-18m36,13h-36m18,14h-18m18,13h-18m18,13h-18m18,14h-18m36,13h-36m18,13h-18m18,14h-18m18,13h-18m18,13h-18m36,14h-36m18,13h-18m18,13h-18m18,14h-18m18,13h-18m36,13h-36m18,13h-18m18,14h-18m18,13h-18m18,13h-18m36,14h-36m18,13h-18m18,13h-18m18,14h-18m18,13h-18m36,13h-36m18,14h-18m18,13h-18m18,13h-18m18,14h-18m36,13h-36m18,13h-18m18,14h-18m18,13h-18" style="stroke: black; stroke-width: 1;"></path>
     <g font-family="Arial" font-size="28" space="preserve" fill="black" text-anchor="end">
      <text dy=".4em" transform="translate(-4,54)">
       2
      </text>
      <text dy=".4em" transform="translate(-4,121)">
       3
      </text>
      <text dy=".4em" transform="translate(-4,187)">
       4
      </text>
      <text dy=".4em" transform="translate(-4,254)">
       5
      </text>
      <text dy=".4em" transform="translate(-4,321)">
       6
      </text>
      <text dy=".4em" transform="translate(-4,387)">
       7
      </text>
      <text dy=".4em" transform="translate(-4,454)">
       8
      </text>
      <text dy=".4em" transform="translate(-4,520)">
       9
      </text>
      <text dy=".4em" transform="translate(-4,587)">
       10
      </text>
     </g>
    </g>
   </g>
  </g>
  <g transform="translate(120,4)" font-family="Arial" font-size="40" space="preserve">
   <text fill="black" text-anchor="middle" dy=".8em" transform="translate(480)">
    Option ACP example
   </text>
  </g>
 </g>
</svg>

<svg xmlns="http://www.w3.org/2000/svg" viewBox="0 0 1200 800" preserveAspectRatio="none" width="1200" height="800">
 <path d="M0,0H1200V800H0Z" style="fill: white;"></path>
 <g>
  <g transform="translate(120,80)">
   <path d="M0,0H960V640H0Z" style="fill: white; stroke: black; stroke-width: 1;"></path>
   <svg x="0" y="0" overflow="hidden" width="960" height="640" viewBox="0 0 960 640">
    <g>
     <path d="M0,53l46,65l46,62l46,60l46,57l46,53l46,49l46,44l45,38l46,34l46,27l46,21l46,14l46,8l46,2l46,-6l46,-11l46,-19l46,-24l46,-31" style="stroke: red; stroke-width: 4; fill: none;"></path>
    </g>
   </svg>
   <g>
    <g transform="translate(0,640)">
     <path d="M0,0h960M0,-24V0M23,-12V0M46,-12V0M69,-12V0M92,-24V0M115,-12V0M138,-12V0M161,-12V0M184,-24V0M207,-12V0M230,-12V0M253,-12V0M276,-24V0M299,-12V0M322,-12V0M344,-12V0M367,-24V0M390,-12V0M413,-12V0M436,-12V0M459,-24V0M482,-12V0M505,-12V0M528,-12V0M551,-24V0M574,-12V0M597,-12V0M620,-12V0M643,-24V0M666,-12V0M689,-12V0M712,-12V0M735,-24V0M758,-12V0M781,-12V0M804,-12V0M827,-24V0M850,-12V0M873,-12V0M896,-12V0M919,-24V0M942,-12V0" style="stroke: black; stroke-width: 1;"></path>
     <g font-family="Arial" font-size="28" space="preserve" fill="black" text-anchor="middle">
      <text dy=".8em" transform="translate(0,6)">
       0
      </text>
      <text dy=".8em" transform="translate(92,6)">
       0.2
      </text>
      <text dy=".8em" transform="translate(184,6)">
       0.4
      </text>
      <text dy=".8em" transform="translate(276,6)">
       0.6
      </text>
      <text dy=".8em" transform="translate(367,6)">
       0.8
      </text>
      <text dy=".8em" transform="translate(459,6)">
       1
      </text>
      <text dy=".8em" transform="translate(551,6)">
       1.2
      </text>
      <text dy=".8em" transform="translate(643,6)">
       1.4
      </text>
      <text dy=".8em" transform="translate(735,6)">
       1.6
      </text>
      <text dy=".8em" transform="translate(827,6)">
       1.8
      </text>
      <text dy=".8em" transform="translate(919,6)">
       2
      </text>
     </g>
    </g>
    <g>
     <path d="M0,0v640M18,1H0M18,14H0M18,28H0M18,41H0M36,54H0M18,68H0M18,81H0M18,94H0M18,107H0M36,121H0M18,134H0M18,147H0M18,161H0M18,174H0M36,187H0M18,201H0M18,214H0M18,227H0M18,241H0M36,254H0M18,267H0M18,281H0M18,294H0M18,307H0M36,321H0M18,334H0M18,347H0M18,361H0M18,374H0M36,387H0M18,400H0M18,414H0M18,427H0M18,440H0M36,454H0M18,467H0M18,480H0M18,494H0M18,507H0M36,520H0M18,534H0M18,547H0M18,560H0M18,574H0M36,587H0M18,600H0M18,614H0M18,627H0" style="stroke: black; stroke-width: 1;"></path>
     <g font-family="Arial" font-size="28" space="preserve" fill="black" text-anchor="end">
      <text dy=".4em" transform="translate(-4,54)">
       2
      </text>
      <text dy=".4em" transform="translate(-4,121)">
       3
      </text>
      <text dy=".4em" transform="translate(-4,187)">
       4
      </text>
      <text dy=".4em" transform="translate(-4,254)">
       5
      </text>
      <text dy=".4em" transform="translate(-4,321)">
       6
      </text>
      <text dy=".4em" transform="translate(-4,387)">
       7
      </text>
      <text dy=".4em" transform="translate(-4,454)">
       8
      </text>
      <text dy=".4em" transform="translate(-4,520)">
       9
      </text>
      <text dy=".4em" transform="translate(-4,587)">
       10
      </text>
     </g>
    </g>
   </g>
  </g>
  <g transform="translate(120,4)" font-family="Arial" font-size="40" space="preserve">
   <text fill="black" text-anchor="middle" dy=".8em" transform="translate(480)">
    Option ACP example
   </text>
  </g>
 </g>
</svg>
